material/.icons/material/sitemap.svg

<svg xmlns="http://www.w3.org/2000/svg" viewBox="0 0 24 24"><path d="M9 2v6h2v3H5c-1.11 0-2 .89-2 2v3H1v6h6v-6H5v-3h6v3H9v6h6v-6h-2v-3h6v3h-2v6h6v-6h-2v-3c0-1.11-.89-2-2-2h-6V8h2V2H9z"/></svg>

<?xml version="1.0" encoding="UTF-8"?><!DOCTYPE svg PUBLIC "-//W3C//DTD SVG 1.1//EN" "http://www.w3.org/Graphics/SVG/1.1/DTD/svg11.dtd"><svg xmlns="http://www.w3.org/2000/svg" xmlns:xlink="http://www.w3.org/1999/xlink" version="1.1" id="mdi-sitemap" width="24" height="24" viewBox="0 0 24 24"><path d="M9,2V8H11V11H5C3.89,11 3,11.89 3,13V16H1V22H7V16H5V13H11V16H9V22H15V16H13V13H19V16H17V22H23V16H21V13C21,11.89 20.11,11 19,11H13V8H15V2H9Z" /></svg>
